public/images/kakao-icon.svg

<svg preserveAspectRatio="none" width="100%" height="100%" overflow="visible" style="display: block;" viewBox="0 0 30 29" fill="none" xmlns="http://www.w3.org/2000/svg">
<path id="Vector" fill-rule="evenodd" clip-rule="evenodd" d="M0 12.4288C0 5.43551 6.85773 0 15 0C23.1423 0 30 5.43551 30 12.4288C30 19.422 23.1423 24.8575 15 24.8575C14.3609 24.8575 13.7323 24.8253 13.1141 24.7608L6.495 28.8969C6.38353 28.9666 6.25457 29.0024 6.12355 28.9999C5.99254 28.9974 5.86501 28.9566 5.75625 28.8826C5.64748 28.8086 5.56208 28.7044 5.51026 28.5825C5.45845 28.4606 5.44242 28.3262 5.46409 28.1953L6.39409 22.6134C2.57045 20.3928 0 16.6891 0 12.4288ZM3.75 9.66681C3.75 9.39212 3.85775 9.12868 4.04955 8.93444C4.24135 8.7402 4.50148 8.63108 4.77273 8.63108H8.86364C9.13488 8.63108 9.39501 8.7402 9.58681 8.93444C9.77861 9.12868 9.88636 9.39212 9.88636 9.66681C9.88636 9.9415 9.77861 10.2049 9.58681 10.3992C9.39501 10.5934 9.13488 10.7025 8.86364 10.7025H7.84091V15.8812C7.84091 16.1559 7.73316 16.4193 7.54136 16.6136C7.34956 16.8078 7.08943 16.9169 6.81818 16.9169C6.54694 16.9169 6.2868 16.8078 6.095 16.6136C5.90321 16.4193 5.79545 16.1559 5.79545 15.8812V10.7025H4.77273C4.50148 10.7025 4.24135 10.5934 4.04955 10.3992C3.85775 10.2049 3.75 9.9415 3.75 9.66681ZM12.885 9.29119C12.8103 9.09668 12.6793 8.92957 12.5092 8.81174C12.3392 8.69391 12.1379 8.63087 11.9318 8.63087C11.7257 8.63087 11.5245 8.69391 11.3544 8.81174C11.1843 8.92957 11.0533 9.09668 10.9786 9.29119L8.59227 15.5056C8.54356 15.6323 8.51999 15.7676 8.52289 15.9036C8.52579 16.0396 8.55511 16.1736 8.60918 16.2982C8.66325 16.4227 8.74101 16.5352 8.83801 16.6293C8.93502 16.7234 9.04937 16.7972 9.17455 16.8465C9.29972 16.8958 9.43326 16.9197 9.56755 16.9168C9.70183 16.9138 9.83423 16.8841 9.95718 16.8294C10.0801 16.7746 10.1912 16.6959 10.2841 16.5976C10.377 16.4994 10.4499 16.3836 10.4986 16.2568L10.7755 15.5359H13.0882L13.365 16.2568C13.4503 16.4816 13.6103 16.6693 13.8175 16.7875C14.0247 16.9057 14.2661 16.9472 14.5001 16.9046C14.7342 16.8621 14.9463 16.7384 15.1 16.5546C15.2537 16.3708 15.3394 16.1386 15.3423 15.8978C15.3466 16.1693 15.456 16.4283 15.6471 16.619C15.8381 16.8096 16.0954 16.9166 16.3636 16.9169H19.0909C19.3622 16.9169 19.6223 16.8078 19.8141 16.6136C20.0059 16.4193 20.1136 16.1559 20.1136 15.8812C20.1136 16.1559 20.2214 16.4193 20.4132 16.6136C20.605 16.8078 20.8651 16.9169 21.1364 16.9169C21.4076 16.9169 21.6677 16.8078 21.8595 16.6136C22.0513 16.4193 22.1591 16.1559 22.1591 15.8812V14.2378L22.4155 13.9796L24.4282 16.5289C24.5122 16.6351 24.616 16.7236 24.7338 16.7893C24.8515 16.8549 24.9809 16.8964 25.1145 16.9114C25.248 16.9264 25.3832 16.9146 25.5123 16.8767C25.6414 16.8388 25.7619 16.7755 25.8668 16.6904C25.9718 16.6054 26.0591 16.5002 26.1239 16.381C26.1887 16.2617 26.2297 16.1307 26.2445 15.9954C26.2594 15.8602 26.2477 15.7232 26.2103 15.5925C26.1728 15.4618 26.1104 15.3398 26.0264 15.2335L23.8705 12.5061L25.95 10.3987C26.1307 10.2024 26.229 9.9427 26.2243 9.67438C26.2197 9.40605 26.1123 9.15004 25.9249 8.96028C25.7376 8.77051 25.4848 8.66181 25.2198 8.65708C24.9548 8.65234 24.6984 8.75194 24.5045 8.9349L22.1591 11.3102V9.66681C22.1591 9.39212 22.0513 9.12868 21.8595 8.93444C21.6677 8.7402 21.4076 8.63108 21.1364 8.63108C20.8651 8.63108 20.605 8.7402 20.4132 8.93444C20.2214 9.12868 20.1136 9.39212 20.1136 9.66681V15.8812C20.1136 15.6065 20.0059 15.3431 19.8141 15.1488C19.6223 14.9546 19.3622 14.8455 19.0909 14.8455H17.3864V9.66681C17.3864 9.39212 17.2786 9.12868 17.0868 8.93444C16.895 8.7402 16.6349 8.63108 16.3636 8.63108C16.0924 8.63108 15.8323 8.7402 15.6405 8.93444C15.4487 9.12868 15.3409 9.39212 15.3409 9.66681V15.8563C15.3367 15.7364 15.3132 15.6179 15.2714 15.5056L12.885 9.29119ZM11.9318 12.5254L12.2932 13.4659H11.5705L11.9318 12.5268V12.5254Z" fill="var(--fill-0, black)"/>
</svg>

<svg xmlns="http://www.w3.org/2000/svg" fill="none" overflow="visible" preserveAspectRatio="none" style="display:block" viewBox="0 0 30 29"><path fill="var(--fill-0, black)" fill-rule="evenodd" d="M0 12.429C0 5.436 6.858 0 15 0s15 5.436 15 12.429-6.858 12.429-15 12.429q-.96 0-1.886-.097l-6.619 4.136a.676.676 0 0 1-.985-.314.7.7 0 0 1-.046-.388l.93-5.582C2.57 20.393 0 16.69 0 12.43m3.75-2.762c0-.275.108-.538.3-.733.191-.194.451-.303.723-.303h4.09c.272 0 .532.11.724.303a1.04 1.04 0 0 1 0 1.465 1.02 1.02 0 0 1-.723.304H7.84v5.178c0 .275-.108.538-.3.733a1.016 1.016 0 0 1-1.446 0 1.04 1.04 0 0 1-.3-.733v-5.178H4.773c-.272 0-.532-.11-.723-.304a1.04 1.04 0 0 1-.3-.732m9.135-.376a1.03 1.03 0 0 0-.376-.48 1.01 1.01 0 0 0-1.155 0c-.17.119-.3.286-.375.48l-2.387 6.215a1.05 1.05 0 0 0 .246 1.123 1.02 1.02 0 0 0 .73.288 1 1 0 0 0 .716-.32q.14-.148.215-.34l.276-.721h2.313l.277.72c.085.226.245.413.453.532a1.01 1.01 0 0 0 1.282-.233c.154-.184.24-.416.242-.657.005.271.114.53.305.721s.448.298.717.298h2.727c.271 0 .531-.11.723-.303.192-.195.3-.458.3-.733 0 .275.107.538.3.733a1.016 1.016 0 0 0 1.445 0c.192-.195.3-.458.3-.733v-1.643l.257-.258 2.012 2.549a1.03 1.03 0 0 0 .686.382 1 1 0 0 0 .753-.22 1.03 1.03 0 0 0 .377-.696 1.05 1.05 0 0 0-.218-.761l-2.155-2.728L25.95 10.4a1.043 1.043 0 0 0-.025-1.439 1.016 1.016 0 0 0-1.42-.025l-2.346 2.375V9.667c0-.275-.108-.538-.3-.733a1.016 1.016 0 0 0-1.446 0c-.192.195-.3.458-.3.733v6.214c0-.274-.107-.538-.299-.732a1.02 1.02 0 0 0-.723-.303h-1.705v-5.18a1.04 1.04 0 0 0-.3-.732 1.016 1.016 0 0 0-1.445 0c-.192.195-.3.458-.3.733v6.19a1.1 1.1 0 0 0-.07-.351zm-.953 3.234.361.94h-.723l.362-.938z" clip-rule="evenodd"/></svg>
